!!!COM: Bach, Johann Sebastian
!!!OPR: Joh. Seb. Bachs vierstimmige Choralgesänge
!!!XEN: Four-part Chorales
!!!OTL: 151. O Traurigkeit, o Herzeleid
!!!SCT: BWV 404
!!!SCA: Thematisch-systematisches Verzeichnis der musikalischen Werke Johann Sebastian Bach: Bach-Werke-Verzeichnis (Schmieder)
!!!YOR: Bach Gesellschaft Edition xxxix
!!!ENC: Steven Rasmussen
!!!CDT: 1685/3//-1750/7/28/
!!!OCY: Deutschland
!!!YEC: Copyright (c) 1994, 2000 Center for Computer Assisted Research in the Humanities
!!!YEM: Rights to all derivative editions reserved
!!!YEN: United States of America
**kern	**kern	**kern	**kern	**silbe
*I:[BASSO]	*I:[TENORE]	*I:[ALTO]	*I:[SOPRANO]	*I:[SOPRANO]
*clefF4	*clefGv2	*clefG2	*clefG2	*
*k[]	*k[]	*k[]	*k[]	*
*a:	*a:	*a:	*a:	*
*M4/4	*M4/4	*M4/4	*M4/4	*
4E	4B	4g#	4ee	O
=1	=1	=1	=1	=1
4A	8AL	4e	8ccL	Trau-
.	8G#J	.	8bJ	.
4AA	4F#	8eL	4cc	-rig-
.	.	8d#J	.	.
4E;	4G#;	4e;	4b;	-keit,
4D	4B	4e	4g#	o
=2	=2	=2	=2	=2
4C	4c	4e	4a	Her-
4F	8BL	4d	4a	-ze-
.	8AJ	.	.	.
4E;	4B;	4e;	4g#;	-leid!
4E	4B	4g#	4ee	Ist
=3	=3	=3	=3	=3
4A	4c	4a	4ee	das
4G#	4B	4b	4ee	nicht
8AL	8cL	4a	4ff	zu
8BJ	8dJ	.	.	.
4c	8eL	4g	8eeL	be-
.	8cJ	.	8ddJ	.
=4	=4	=4	=4	=4
4F#	4c	4a	2dd	-kla-
4G	4B	8gL	.	.
.	.	8fJ	.	.
2C;	2c;	2e;	2cc;	-gen?
=5	=5	=5	=5	=5
4G	4d	4g	4b	Got-
4A	4c	8fL	4cc	-tes
.	.	8eJ	.	.
4B	4g	8dL	4dd	Va-
.	.	8ddJ	.	.
4c	8GL	4cc	4ee	-ters
.	8AJ	.	.	.
=6	=6	=6	=6	=6
4G#	8BL	4b	4dd	ei-
.	8EJ	.	.	.
4A	4e	4a	4cc	-nigs
2E;	2e;	2g#;	2b;	Kind
=7	=7	=7	=7	=7
4F#	8eL	4e	4a	wird
.	8dJ	.	.	.
4G#	8dL	4e	4b	zu
.	8cJ	.	.	.
8AL	8cL	4e	4cc	Grab
8GnJ	8BJ	.	.	.
8FnL	4A	8aL	8ddL	ge-
8EJ	.	8gJ	8eeJ	.
=8	=8	=8	=8	=8
4D	4A	4f	2b	-tra-
4E	4G#	8eL	.	.
.	.	8dJ	.	.
2AA;	2E;	2c;	2a;	-gen.
==|!	==|!	==|!	==|!	==|!
*-	*-	*-	*-	*-
!!!RWG: Key is interpreted using the Humdrum key tool.
!!!END: 1994/07/29
!!!EMD: Converted from MuseData to Humdrum Dec 19, 2000, by Andreas Kornstaedt using muse2kern.
!!!EED: Craig Stuart Sapp
!!!EEV: 2024/03/31
!!!ONB: Some non-unicode characters
!!!filter-keyboard: satb2gs
